X: 40595
T: Tôn Alarch
R: waltz
M: 3/4
K: Gmajor
A2|d2 d>f (3def|A2 A>B (3ABc|(3def f>g f>g|e2 c>de>c|
d2 d>e (3def|A2 A>B (3ABc|(3def f>g A>c|d4:|
|:f>g|a2 f>ga>f|g2 e>fg>e|f2 d>ef>g|a2 A>Bc>A|
a>gf>g (3agf|g>fe>f (3gfe|f>e d>e f>g|a2 A>Bc>A|
f2 d>e (3def|A2 A>B (3ABc|(3def f>g A>c|d4:|

